!!!OTL: 254. Kreistanz mit Nachahmung.
!!!ARE: Europa, Mitteleuropa, Deutschland, Bacharach am Rhein
!!!SCT: K2254
!!!TXL: @@DE
!!!YEM: Copyright 1995, estate of Helmut Schaffrath.
**kern	**text
*clefG2	*
*M3/4	*
*k[]	*
*C:	*
{(8g	Auf
8g)	dem
=1	=1
4g	Ber-
4e	-ge,
(8g	auf
8g)	dem
=2	=2
4g	Ber-
4e}	-ge,
{4g	da
=3	=3
4f	ſteht
4d	ein'
4f	Ka-
=4	=4
4e	-pell',
4r}	.
{4g	da
=5	=5
4g	tan-
4e	-ʒen
8g	die
8g	Ty-
=6	=6
4g	-ro-
4e}	-ler
{4g	mit
=7	=7
4f	ih-
4d	-rer
4f	Mam-
=8	=8
4e	-ſell.
4r}	.
{(8g	Mein
8g)	.
=9	=9
4g	Va-
4e	-ter
(8g	iſt
8g)	.
=10	=10
4g	Kö-
4e}	-nig
{4g	und
=11	=11
4f	ich
4d	bin
4f	ſein
=12	=12
4e	Sohn,
4r}	.
{8g	wenn
8g	er
=13	=13
4g	ſter-
4e	-bet,
8g	wenn
8g	er
=14	=14
4g	ſter-
4e}	-bet,
{4g	dann
=15	=15
4f	erb'
4d	ich
4f	ſein
=16	=16
4e	Thron.
4r}	.
==	==
!!!AGN: Kinder - Lied, Reigen, Tanz, Nachahmungs - Spiel
!!!ONB: ESAC (Essen Associative Code) Database: KINDER
!!!AMT: simple triple
!!!AIN: vox
!!!EED: Helmut Schaffrath
!!!EEV: 1.0
!!Aus der Gegend von Bacharach a. Rh. 1896.
!!!GTL: Zweites Buch. Kinderspiel: 2. Reigen und Tanzspiele. / E. Reigenspiele mit Nachahmungen.
!!!URL-scan: https://archive.org/details/DeutschesKinderliedUndKinderspiel/page/502/mode/1up
!!!ENC: Anna Maria Matuszewska
!!!EEV: 2024/04/09
*-	*-
